X: 59
T: No_52_Song_Used_in_Treatment_of_Sick_(a).krn
N: Derived from No_52_Song_Used_in_Treatment_of_Sick_(a).krn
%%abc-version 2.0
%%abcx-abcm2ps-target-version 5.9.1 (29 Sep 2008)
%%abc-creator hum2abc beta
%%abcx-conversion-date 2019/03/15 08:36:49
%%humdrum-veritas 1870782352
%%humdrum-veritas-data 1397470420
%%linebreak <none>
%%barnumbers 0
L: 1/16
M: 2/4
K: Eb clef=bass
B,4 [I:setbarnb 1]| 
C3B, C2B,B, ||  
[M:3/4]B,8B,4 ||  
[M:2/4]F,2E,E, F,2E,E, | 
E,8 | 
F,3E, G,2E,E, ||  
[M:3/4]E,8E,2B,,2 ||  
[M:2/4]!fermata!E,4F,2E,E, | 
E,6E,2 | 
B,,4B,,3B,, | 
B,,8 |]  



